!!!COM: Music21
!!!OTL: waltz_Planxty-Charles-Bunworth
!!!OMV: waltz_Planxty-Charles-Bunworth
**kern
*clefG2
*k[f#]
*G:
*M3/4
=1
4g
4dd
8bL
8aJ
=
4.b
24bLL
24cc
24bJJ
8aL
8gJ
=
4g
4ee
8eeL
8ddJ
=
8.ddL
32eeLL
32ff#JJJ
8.ggL
32ff#LL
32eeJJJ
8.ddL
16ccJk
=
8.bL
32bLL
32aJJJ
8bL
8ccJ
8ddL
8dJ
=
8.bL
32bLL
32aJJJ
8bL
8ccJ
8ddL
8dJ
!!linebreak:original
=
8.aL
32bLL
32ccJJJ
4b
8aL
8dJ
=
4..a
32bLLL
32aJJJ
4g
=
4e 4cc
16ccLL
16dd
16ee
16ff#JJ
8.ggL
32ff#LL
32eeJJJ
=
8ddL
8ggJ
8..bL
32bJkk
8.aL
16gJk
=
2.g
=
[2g
8gL]
8dJ
=||
*M3/4
4g
4dd
8bL
8aJ
!!linebreak:original
=
4.b
24bLL
24cc
24bJJ
8aL
8gJ
=
4g
4ee
8eeL
8ddJ
=
8.ddL
32eeLL
32ff#JJJ
8.ggL
32ff#LL
32eeJJJ
8.ddL
16ccJk
=
8.bL
32bLL
32aJJJ
8bL
8ccJ
8ddL
8dJ
=
8.bL
32bLL
32aJJJ
8bL
8ccJ
8ddL
8dJ
=
8.aL
32bLL
32ccJJJ
4b
8aL
8dJ
!!linebreak:original
=
4..a
32bLLL
32aJJJ
4g
=
4e 4cc
16ccLL
16dd
16ee
16ff#JJ
8.ggL
32ff#LL
32eeJJJ
=
8ddL
8ggJ
8..bL
32bJkk
8.aL
16gJk
=
2.g
=
[2g
8gL]
8dJ
=||
8gL
8dJ
8ddL
8dJ
8bL
8dJ
=
8gL
8dJ
16gLL
16a
16b
16ccJJ
8ddL
8dJ
!!linebreak:original
=
8gL
8dJ
8ddL
8dJ
8bL
8dJ
=
8gL
8dJ
16gLL
16a
16b
16ccJJ
8ddL
8gJ
=
8gL
8eJ
8eL
8ggJ
8ff#L
8gJ
=
8gL
8eJ
8eL
8eeJ
16ddLL
16cc
16b
16aJJ
=
8ccL
8eeJ
8ddL
8gJ
16ccLL
16b
16a
16gJJ
=
4b
4..a
32gLLL
32f#JJJ
!!linebreak:original
=
8gL
8dJ
8ddL
8dJ
8bL
8dJ
=
8gL
8dJ
16gLL
16a
16b
16ccJJ
8ddL
8gJ
=
8gL
8dJ
8ddL
8dJ
8bL
8dJ
=
8gL
8dJ
8dL
8ddJ
8ddL
8gJ
=
8gL
8eJ
8eL
8ggJ
8ff#L
8gJ
=
8gL
8eJ
8eL
8eeJ
16ddLL
16cc
16b
16aJJ
!!linebreak:original
=
8ccL
8eeJ
8ddL
8gJ
16ccLL
16b
16a
16gJJ
=
4b
4..a
32gLLL
32f#JJJ
=||
*M3/4
4g
4dd
8bL
8aJ
=
4.b
24bLL
24cc
24bJJ
8aL
8gJ
=
4g
4ee
8eeL
8ddJ
=
8.ddL
32eeLL
32ff#JJJ
8.ggL
32ff#LL
32eeJJJ
8.ddL
16ccJk
!!linebreak:original
=
8.bL
32bLL
32aJJJ
8bL
8ccJ
8ddL
8dJ
=
8.bL
32bLL
32aJJJ
8bL
8ccJ
8ddL
8dJ
=
8.aL
32bLL
32ccJJJ
4b
8aL
8dJ
=
4..a
32bLLL
32aJJJ
4g
=
4e 4cc
16ccLL
16dd
16ee
16ff#JJ
8.ggL
32ff#LL
32eeJJJ
=
8ddL
8ggJ
8..bL
32bJkk
8.aL
16gJk
!!linebreak:original
=
2.g
=
[2g
8gL]
8dJ
=||
*M3/4
4g
4dd
8bL
8aJ
=
4.b
24bLL
24cc
24bJJ
8aL
8gJ
=
4g
4ee
8eeL
8ddJ
=
8.ddL
32eeLL
32ff#JJJ
8.ggL
32ff#LL
32eeJJJ
8.ddL
16ccJk
!!linebreak:original
=
8.bL
32bLL
32aJJJ
8bL
8ccJ
8ddL
8dJ
=
8.bL
32bLL
32aJJJ
8bL
8ccJ
8ddL
8dJ
=
8.aL
32bLL
32ccJJJ
4b
8aL
8dJ
=
4..a
32bLLL
32aJJJ
4g
=
4e 4cc
16ccLL
16dd
16ee
16ff#JJ
8.ggL
32ff#LL
32eeJJJ
=
8ddL
8ggJ
8..bL
32bJkk
8.aL
16gJk
!!pagebreak:original
=
2.g
=
[2g
8gL]
8dJ
=||
8gL
8dJ
8ddL
8dJ
8bL
8dJ
=
8gL
8dJ
16gLL
16a
16b
16ccJJ
8ddL
8dJ
=
8gL
8dJ
8ddL
8dJ
8bL
8dJ
=
8gL
8dJ
16gLL
16a
16b
16ccJJ
8ddL
8gJ
=
8gL
8eJ
8eL
8ggJ
8ff#L
8gJ
!!linebreak:original
=
8gL
8eJ
8eL
8eeJ
16ddLL
16cc
16b
16aJJ
=
8ccL
8eeJ
8ddL
8gJ
16ccLL
16b
16a
16gJJ
=
4b
4..a
32gLLL
32f#JJJ
=
8gL
8dJ
8ddL
8dJ
8bL
8dJ
=
8gL
8dJ
16gLL
16a
16b
16ccJJ
8ddL
8gJ
=
8gL
8dJ
8ddL
8dJ
8bL
8dJ
!!linebreak:original
=
8gL
8dJ
8dL
8ddJ
8ddL
8gJ
=
8gL
8eJ
8eL
8ggJ
8ff#L
8gJ
=
8gL
8eJ
8eL
8eeJ
16ddLL
16cc
16b
16aJJ
=
8ccL
8eeJ
8ddL
8gJ
16ccLL
16b
16a
16gJJ
=
4b
4..a
32gLLL
32f#JJJ
=||
2.g
=||
*-
